X:12788
T:Papichon (Stephan Steiner)
M:2/4
L:1/16
K:Am
edcB A2AA-|ABAG F3E|FGAc BAGA|Bcdg edfd|edcB A2AA-|\
ABAG F3E|
FGAc BAGA|1BcBc A2ee:|2BcBc A3G|:FGAc B2AB|GABd c3B|ABce fedc|
Bcdg ecAG|FGAc B2AB|\
GABd gfed|fedc BAGA|1BcBc A3G:|2BcBc A2ee|]
